svgs/solid/microphone-lines.svg

<svg xmlns="http://www.w3.org/2000/svg" viewBox="0 0 384 512"><!-- Font Awesome Pro 6.0.0-alpha2 by @fontawesome - https://fontawesome.com License - https://fontawesome.com/license (Commercial License) --><path d="M192 352C245.031 352 288 309.031 288 256H208C199.164 256 192 248.836 192 240S199.164 224 208 224H288V192H208C199.164 192 192 184.836 192 176S199.164 160 208 160H288V128H208C199.164 128 192 120.836 192 112S199.164 96 208 96H288C288 42.969 245.031 0 192 0S96 42.969 96 96V256C96 309.031 138.969 352 192 352ZM344 192H344C330.745 192 320 202.745 320 216V256C320 329.329 258.034 388.425 183.746 383.738C117.664 379.569 64 317.144 64 250.93V216C64 202.745 53.255 192 40 192H40C26.745 192 16 202.745 16 216V248.156C16 337.812 79.969 417.719 168 429.844V464H128C109.807 464 95.158 479.183 96.038 497.571C96.431 505.784 103.778 512 112 512H272C280.222 512 287.57 505.784 287.962 497.571C288.841 479.183 274.195 464 256 464H216V430.219C301.719 418.469 368 344.906 368 256V216C368 202.745 357.255 192 344 192Z"/></svg>

<svg xmlns="http://www.w3.org/2000/svg" viewBox="0 0 384 512"><!--! Font Awesome Pro 6.4.0 by @fontawesome - https://fontawesome.com License - https://fontawesome.com/license (Commercial License) Copyright 2023 Fonticons, Inc. --><path d="M96 96V256c0 53 43 96 96 96s96-43 96-96H208c-8.8 0-16-7.2-16-16s7.2-16 16-16h80V192H208c-8.8 0-16-7.2-16-16s7.2-16 16-16h80V128H208c-8.8 0-16-7.2-16-16s7.2-16 16-16h80c0-53-43-96-96-96S96 43 96 96zM320 240v16c0 70.7-57.3 128-128 128s-128-57.3-128-128V216c0-13.3-10.7-24-24-24s-24 10.7-24 24v40c0 89.1 66.2 162.7 152 174.4V464H120c-13.3 0-24 10.7-24 24s10.7 24 24 24h72 72c13.3 0 24-10.7 24-24s-10.7-24-24-24H216V430.4c85.8-11.7 152-85.3 152-174.4V216c0-13.3-10.7-24-24-24s-24 10.7-24 24v24z"/></svg>
